SVG/newspaper-o.svg

<?xml version="1.0" encoding="utf-8"?>
<!-- Generated by IcoMoon.io -->
<!DOCTYPE svg PUBLIC "-//W3C//DTD SVG 1.1//EN" "http://www.w3.org/Graphics/SVG/1.1/DTD/svg11.dtd">
<svg version="1.1" xmlns="http://www.w3.org/2000/svg" xmlns:xlink="http://www.w3.org/1999/xlink" width="16" height="14" viewBox="0 0 16 14">
<path fill="#444444" d="M8 4h-3v3h3v-3zM9 9v1h-5v-1h5zM9 3v5h-5v-5h5zM14 9v1h-4v-1h4zM14 7v1h-4v-1h4zM14 5v1h-4v-1h4zM14 3v1h-4v-1h4zM2 10.5v-7.5h-1v7.5q0 0.203 0.148 0.352t0.352 0.148 0.352-0.148 0.148-0.352zM15 10.5v-8.5h-12v8.5q0 0.258-0.086 0.5h11.586q0.203 0 0.352-0.148t0.148-0.352zM16 1v9.5q0 0.625-0.438 1.062t-1.062 0.438h-13q-0.625 0-1.062-0.438t-0.438-1.062v-8.5h2v-1h14z"></path>
</svg>

<svg xmlns="http://www.w3.org/2000/svg" viewBox="0 0 16 14"><path d="M8 4H5v3h3V4zm1 5v1H4V9h5zm0-6v5H4V3h5zm5 6v1h-4V9h4zm0-2v1h-4V7h4zm0-2v1h-4V5h4zm0-2v1h-4V3h4zM2 10.5V3H1v7.5q0 .203.148.352T1.5 11t.352-.148T2 10.5zm13 0V2H3v8.5q0 .258-.086.5H14.5q.203 0 .352-.148T15 10.5zM16 1v9.5q0 .625-.438 1.062T14.5 12h-13q-.625 0-1.062-.438T0 10.5V2h2V1h14z" /></svg>
